X: 8545
T: Crib Of Perches, The
R: reel
M: 4/4
K: Dmixolydian
|:A3B AGFD|(3EFG AB c2BA|G2EC G,CEG|cAGc AGFG|
A3B AGFD|(3EFG AB c2Bc|df~f2 efdB|AFGE FDFG:|
K:D
|:df~f2 af~f2|bfaf gfed|(3Bcd ef gece|gecA ^GABc|
df~f2 af~f2|defd edcA|(3Bcd ec d2 cB|AdAG FDD2:|

